Newaita-dark/.DP/24/octopi-error.svg

<svg xmlns="http://www.w3.org/2000/svg" xmlns:xlink="http://www.w3.org/1999/xlink" width="24px" height="24px" viewBox="0 0 24 24" version="1.1">
<g id="surface1">
<path style=" stroke:none;fill-rule:nonzero;fill:rgb(93.725491%,32.549021%,31.37255%);fill-opacity:1;" d="M 11.90625 2.171875 C 7.511719 2.171875 3.96875 6.15625 3.96875 11.101562 L 3.96875 19.039062 C 3.96875 19.566406 4.175781 20.074219 4.546875 20.445312 C 4.921875 20.816406 5.425781 21.027344 5.953125 21.027344 C 6.480469 21.027344 6.984375 20.816406 7.359375 20.445312 C 7.730469 20.074219 7.9375 19.566406 7.9375 19.039062 L 7.9375 17.054688 C 7.9375 16.792969 8.042969 16.539062 8.226562 16.355469 C 8.414062 16.167969 8.667969 16.0625 8.929688 16.066406 C 9.480469 16.066406 9.921875 16.507812 9.921875 17.054688 L 9.921875 19.039062 C 9.921875 20.140625 10.808594 21.027344 11.90625 21.027344 C 12.433594 21.027344 12.941406 20.816406 13.3125 20.445312 C 13.683594 20.074219 13.894531 19.566406 13.894531 19.039062 L 13.894531 17.054688 C 13.894531 16.507812 14.335938 16.066406 14.886719 16.066406 C 15.148438 16.0625 15.402344 16.167969 15.585938 16.355469 C 15.773438 16.539062 15.878906 16.792969 15.878906 17.054688 L 15.878906 19.039062 C 15.875 19.566406 16.085938 20.074219 16.457031 20.445312 C 16.828125 20.816406 17.335938 21.027344 17.863281 21.027344 C 18.386719 21.027344 18.894531 20.816406 19.265625 20.445312 C 19.636719 20.074219 19.847656 19.566406 19.84375 19.039062 L 19.84375 11.101562 C 19.84375 6.15625 16.304688 2.171875 11.90625 2.171875 Z M 8.929688 7.132812 C 10.03125 7.132812 10.914062 8.019531 10.914062 9.117188 C 10.914062 10.21875 10.03125 11.101562 8.929688 11.101562 C 8.402344 11.105469 7.898438 10.894531 7.523438 10.523438 C 7.152344 10.148438 6.945312 9.644531 6.945312 9.117188 C 6.945312 8.589844 7.152344 8.085938 7.527344 7.714844 C 7.898438 7.339844 8.402344 7.132812 8.929688 7.132812 Z M 14.882812 7.132812 C 15.984375 7.132812 16.871094 8.019531 16.871094 9.117188 C 16.871094 10.21875 15.984375 11.101562 14.882812 11.101562 C 14.359375 11.105469 13.851562 10.894531 13.480469 10.523438 C 13.109375 10.148438 12.898438 9.644531 12.902344 9.117188 C 12.898438 8.589844 13.109375 8.085938 13.480469 7.714844 C 13.851562 7.339844 14.359375 7.132812 14.886719 7.132812 Z M 9.425781 7.878906 C 8.742188 7.875 8.1875 8.433594 8.1875 9.117188 C 8.183594 9.445312 8.316406 9.761719 8.546875 9.996094 C 8.78125 10.226562 9.097656 10.359375 9.425781 10.359375 C 9.753906 10.359375 10.070312 10.230469 10.304688 9.996094 C 10.539062 9.761719 10.667969 9.445312 10.667969 9.117188 C 10.667969 8.789062 10.535156 8.472656 10.304688 8.238281 C 10.070312 8.007812 9.753906 7.875 9.425781 7.878906 Z M 15.382812 7.878906 C 15.050781 7.875 14.734375 8.007812 14.503906 8.238281 C 14.269531 8.472656 14.140625 8.789062 14.140625 9.117188 C 14.140625 9.445312 14.269531 9.761719 14.503906 9.996094 C 14.734375 10.230469 15.050781 10.359375 15.382812 10.359375 C 16.070312 10.359375 16.621094 9.804688 16.621094 9.117188 C 16.621094 8.789062 16.492188 8.472656 16.257812 8.238281 C 16.027344 8.007812 15.710938 7.875 15.382812 7.878906 Z M 15.382812 7.878906 "/>
</g>
</svg>

<svg xmlns="http://www.w3.org/2000/svg" width="32" height="32" viewBox="0 0 24 24"><path d="M11.906 2.172c-4.398 0-7.937 3.984-7.937 8.93v7.937c0 1.102.886 1.988 1.984 1.988a1.98 1.98 0 0 0 1.984-1.988v-1.984a.991.991 0 1 1 1.985 0v1.984c0 1.102.887 1.988 1.984 1.988a1.98 1.98 0 0 0 1.985-1.988v-1.984a.991.991 0 1 1 1.984 0v1.984c0 1.102.887 1.988 1.984 1.988a1.98 1.98 0 0 0 1.985-1.988v-7.937c0-4.946-3.54-8.93-7.938-8.93zM8.93 7.132a1.98 1.98 0 0 1 1.984 1.985 1.977 1.977 0 0 1-1.984 1.985 1.98 1.98 0 0 1-1.985-1.985c0-1.097.887-1.984 1.985-1.984zm5.953 0a1.98 1.98 0 0 1 1.984 1.985 1.977 1.977 0 0 1-1.984 1.985 1.98 1.98 0 0 1-1.985-1.985c0-1.097.887-1.984 1.985-1.984zm-5.457.747c-.688 0-1.239.55-1.239 1.238s.551 1.242 1.239 1.242a1.24 1.24 0 1 0 0-2.48zm5.953 0c-.688 0-1.238.55-1.238 1.238s.55 1.242 1.238 1.242a1.24 1.24 0 1 0 0-2.48zm0 0" fill="#ef5350"/></svg>
